X: 1
T: Gay Gordons, The
M: 2/4
L: 1/8
R: polka
K: Amaj
|:e|A>B cB/A/|d>e fe/d/|1ca cB/A/|cB B:|2ca e/c/d/B/|cA A||
|:c/e/|a>f ed/c/|d>e fe/d/|1ca cB/A/|cB B:|2ca e/c/d/B/|cA A||
